X: 7535
T:Old Maids of Galway
R:Reel
O:Ireland
M:4/4
K:G
eB {c}(3BAB e2dB | A2GA Bdgf | \
(3efg df e2dc | (3ABA GA BG G2 :: \
g2fg egde | (3gfg bg eaa2 |
g2fg egdB | (3ABA GA BGG2 |\
g2fg egde | (3gfg bg eaa2 |\
bgag {a}gfdB | (3ABA GA BGG2 :|
